brandFactory_export/3.Masa/Internet pendrive_3Masa.svg

<?xml version="1.0" encoding="UTF-8"?>
<svg width="24px" height="24px" viewBox="0 0 24 24" version="1.1" xmlns="http://www.w3.org/2000/svg" xmlns:xlink="http://www.w3.org/1999/xlink">
    <title>3.Masa/Internet pendrive_3Masa</title>
    <g id="Symbols" stroke="none" stroke-width="1" fill="none" fill-rule="evenodd">
        <g id="3.Masa/Internet-pendrive_3Masa" fill="#5CB615" fill-rule="nonzero">
            <path d="M11.7008403,5.47226891 C4.8,5.47226891 1.44201681,8.89747899 1.44201681,15.9495798 C1.44537815,16.3529412 1.12268908,16.6823529 0.722689076,16.6857143 C0.319327731,16.6823529 -0.00336134454,16.3529412 -2.60234826e-05,15.9495798 C-2.60234826e-05,8.13109244 4.04705882,4 11.7008403,4 C12.1042017,4.00336134 12.4268908,4.33277311 12.4235554,4.73613445 C12.4268908,5.1394958 12.1042017,5.46890756 11.7008403,5.47226891 Z M12.400026,8.71596639 C12.4033613,9.11932773 12.0806723,9.4487395 11.6806723,9.45210084 C7.37142857,9.45210084 5.27731092,11.5932773 5.27731092,15.9932773 C5.28067227,16.3966387 4.96134454,16.7260504 4.55798319,16.7294118 L4.55462185,16.7294118 C4.1512605,16.7260504 3.82857143,16.3966387 3.83190675,15.9932773 L3.83190675,15.989916 C3.83190675,10.7462185 6.54453782,7.97647059 11.6806723,7.97647059 C12.0806723,7.98655462 12.4033613,8.31596639 12.400026,8.71596639 L12.400026,8.71596639 Z M22.1815126,17.7680672 L22.1815126,14.2386555 C22.1781513,14.1512605 22.1142857,14.0773109 22.0302521,14.0605042 L21.1327731,14.0605042 L21.1327731,17.9495798 L22.0168067,17.9495798 C22.107563,17.9495798 22.1815126,17.8689076 22.1815126,17.7680672 L22.1815126,17.7680672 Z M22.0033613,12.5882353 C22.8773109,12.5882353 23.6033613,13.3210084 23.6235294,14.2252101 L23.6235294,17.7680672 C23.6235294,18.6789916 22.9008403,19.4218487 22.0168067,19.4218487 L21.0521008,19.4218487 C20.8134454,20.1815126 20.1176471,20.7327731 19.297479,20.7327731 L12.2756303,20.7327731 C9.51596639,20.6319328 7.93277311,18.9109244 7.93277311,16.0168067 C7.93277311,13.1159664 9.51596639,11.4016807 12.2789916,11.3109244 L19.287395,11.3109244 C20.0941176,11.3109244 20.7798319,11.8453782 21.0319328,12.5882353 L22.0033613,12.5882353 L22.0033613,12.5882353 Z M11.5932773,15.1563025 C11.0554622,15.1563025 10.7058824,15.4420168 10.7058824,16.0571429 C10.7058824,16.3529412 10.7865546,16.5714286 10.9310924,16.7193277 C11.0857143,16.8806723 11.3142857,16.9579832 11.5932773,16.9579832 C11.8722689,16.9579832 12.1008403,16.8806723 12.2554622,16.7193277 C12.4,16.5714286 12.4806723,16.3529412 12.4806723,16.0571429 C12.4806723,15.4420168 12.1310924,15.1563025 11.5932773,15.1563025 Z" id="Internet-pendrive_3Masa"></path>
        </g>
    </g>
</svg>

<svg width="24" height="24" viewBox="0 0 24 24" xmlns="http://www.w3.org/2000/svg"><path d="M11.7 5.472c-6.9 0-10.258 3.425-10.258 10.478a.728.728 0 01-.72.736A.729.729 0 010 15.95C0 8.13 4.047 4 11.7 4a.729.729 0 01.724.736.729.729 0 01-.723.736zm.7 3.244a.728.728 0 01-.72.736c-4.309 0-6.403 2.141-6.403 6.541a.726.726 0 01-.719.736h-.003a.729.729 0 01-.723-.736v-.003c0-5.244 2.713-8.014 7.849-8.014.4.01.722.34.719.74zm9.782 9.052v-3.53a.19.19 0 00-.152-.177h-.897v3.889h.884c.09 0 .165-.081.165-.182zm-.179-5.18c.874 0 1.6.733 1.62 1.637v3.543c0 .911-.722 1.654-1.606 1.654h-.965c-.239.76-.934 1.31-1.755 1.31h-7.021c-2.76-.1-4.343-1.821-4.343-4.715 0-2.901 1.583-4.615 4.346-4.706h7.008c.807 0 1.493.534 1.745 1.277h.971zm-10.41 2.568c-.538 0-.887.286-.887.901 0 .296.08.514.225.662.155.162.383.239.662.239.28 0 .508-.077.662-.239.145-.148.226-.366.226-.662 0-.615-.35-.9-.888-.9z" fill="#5CB615" fill-rule="nonzero"/></svg>
